SVG_Azure_Grouped/Networking/Virtual Network (classic).svg

<?xml version="1.0" encoding="UTF-8" standalone="no"?>
<!-- Generated by Microsoft Visio, SVG Export Virtual Network (classic).svg Page-1 -->

<svg
   xmlns:dc="http://purl.org/dc/elements/1.1/"
   xmlns:cc="http://creativecommons.org/ns#"
   xmlns:rdf="http://www.w3.org/1999/02/22-rdf-syntax-ns#"
   xmlns:svg="http://www.w3.org/2000/svg"
   xmlns="http://www.w3.org/2000/svg"
   xmlns:sodipodi="http://sodipodi.sourceforge.net/DTD/sodipodi-0.dtd"
   xmlns:inkscape="http://www.inkscape.org/namespaces/inkscape"
   width="0.78235954in"
   height="0.42874995in"
   viewBox="0 0 56.329734 30.869837"
   xml:space="preserve"
   class="st3"
   version="1.1"
   id="svg29"
   sodipodi:docname="Virtual Network (classic).svg"
   style="font-size:12px;overflow:visible;color-interpolation-filters:sRGB;fill:none;fill-rule:evenodd;stroke-linecap:square;stroke-miterlimit:3"
   inkscape:version="0.92.5 (2060ec1f9f, 2020-04-08)"><metadata
   id="metadata35"><rdf:RDF><cc:Work
       rdf:about=""><dc:format>image/svg+xml</dc:format><dc:type
         rdf:resource="http://purl.org/dc/dcmitype/StillImage" /></cc:Work></rdf:RDF></metadata><defs
   id="defs33" /><sodipodi:namedview
   pagecolor="#ffffff"
   bordercolor="#666666"
   borderopacity="1"
   objecttolerance="10"
   gridtolerance="10"
   guidetolerance="10"
   inkscape:pageopacity="0"
   inkscape:pageshadow="2"
   inkscape:window-width="640"
   inkscape:window-height="480"
   id="namedview31"
   showgrid="false"
   inkscape:zoom="2.2896971"
   inkscape:cx="37.555191"
   inkscape:cy="5.9440341"
   inkscape:window-x="0"
   inkscape:window-y="0"
   inkscape:window-maximized="0"
   inkscape:current-layer="svg29" />
	<style
   type="text/css"
   id="style2">
	<![CDATA[
		.st1 {fill:#3999c6;stroke:none;stroke-linecap:butt;stroke-width:12.24}
		.st2 {fill:#0072c6;stroke:none;stroke-linecap:butt;stroke-width:12.24}
		.st3 {fill:none;fill-rule:evenodd;font-size:12px;overflow:visible;stroke-linecap:square;stroke-miterlimit:3}
	]]>
	</style>

	<g
   id="g27"
   transform="translate(-12.238533,-12.239397)">
		<title
   id="title4">Page-1</title>
		<g
   id="group17587-1"
   transform="translate(12.0584,-34.0157)">
			<title
   id="title6">Virtual Network (classic).17587</title>
			<g
   id="group17588-2">
				<title
   id="title8">Sheet.17588</title>
				<g
   id="shape17589-3">
					<title
   id="title10">Sheet.17589</title>
					<path
   d="m 56.13,62.46 c 0.56,-0.53 0.45,-1.39 0,-1.93 L 53.43,57.95 41.28,46.66 c -0.56,-0.54 -1.35,-0.54 -1.91,0 -0.56,0.54 -0.67,1.4 0,1.93 l 12.71,11.94 c 0.56,0.54 0.56,1.4 0,1.93 L 39.15,74.83 c -0.57,0.54 -0.57,1.4 0,1.93 0.56,0.54 1.46,0.43 1.91,0 l 12.03,-11.39 0.12,-0.11 z m -55.57,0 C 0,61.93 0.11,61.07 0.56,60.53 l 2.7,-2.58 12.15,-11.29 c 0.56,-0.54 1.35,-0.54 1.91,0 0.57,0.54 0.68,1.4 0,1.93 L 4.84,60.53 c -0.57,0.54 -0.57,1.4 0,1.93 l 12.71,12.37 c 0.56,0.54 0.56,1.4 0,1.93 -0.56,0.54 -1.46,0.43 -1.91,0 L 3.37,65.48 3.26,65.37 Z"
   class="st1"
   id="path12"
   inkscape:connector-curvature="0"
   style="fill:#3999c6;stroke:none;stroke-width:12.23999977;stroke-linecap:butt" />
				</g>
				<g
   id="shape17590-5"
   transform="translate(13.0484,-12.2574)">
					<title
   id="title15">Sheet.17590</title>
					<path
   d="M 7.65,73.75 C 7.65,75.8 5.85,77.3 3.94,77.3 2.02,77.3 0,75.58 0,73.75 c 0,-1.82 1.57,-3.54 3.94,-3.54 2.25,0 3.71,1.72 3.71,3.54 z m 11.36,0 c 0,2.05 -1.8,3.55 -3.71,3.55 -1.91,0 -3.94,-1.72 -3.94,-3.55 0,-1.82 1.8,-3.54 3.94,-3.54 2.14,0 3.71,1.72 3.71,3.54 z"
   class="st2"
   id="path17"
   inkscape:connector-curvature="0"
   style="fill:#0072c6;stroke:none;stroke-width:12.23999977;stroke-linecap:butt" />
				</g>
				<g
   id="shape17591-7"
   transform="translate(36.108,-12.2574)">
					<title
   id="title20">Sheet.17591</title>
					<ellipse
   cx="3.7120399"
   cy="73.754303"
   rx="3.7120399"
   ry="3.5481901"
   class="st2"
   id="ellipse22"
   style="fill:#0072c6;stroke:none;stroke-width:12.23999977;stroke-linecap:butt" />
				</g>
			</g>
		</g>
	</g>
</svg>

<?xml version="1.0" encoding="UTF-8" standalone="no"?>
<!DOCTYPE svg PUBLIC "-//W3C//DTD SVG 1.1//EN" "http://www.w3.org/Graphics/SVG/1.1/DTD/svg11.dtd">
<!-- Generated by Microsoft Visio, SVG Export Virtual Network (classic).svg Page-1 -->
<svg xmlns="http://www.w3.org/2000/svg" xmlns:xlink="http://www.w3.org/1999/xlink" xmlns:ev="http://www.w3.org/2001/xml-events"
		width="1.12236in" height="1.07365in" viewBox="0 0 80.8097 77.3024" xml:space="preserve" color-interpolation-filters="sRGB"
		class="st3">
	<style type="text/css">
	<![CDATA[
		.st1 {fill:#3999c6;stroke:none;stroke-linecap:butt;stroke-width:12.24}
		.st2 {fill:#0072c6;stroke:none;stroke-linecap:butt;stroke-width:12.24}
		.st3 {fill:none;fill-rule:evenodd;font-size:12px;overflow:visible;stroke-linecap:square;stroke-miterlimit:3}
	]]>
	</style>

	<g>
		<title>Page-1</title>
		<g id="group17190-1" transform="translate(12.0584,-34.0157)">
			<title>Virtual Network (classic).17190</title>
			<g id="group17191-2">
				<title>Sheet.17191</title>
				<g id="shape17192-3">
					<title>Sheet.17192</title>
					<path d="M56.13 62.46 C56.69 61.93 56.58 61.07 56.13 60.53 L53.43 57.95 L41.28 46.66 C40.72 46.12 39.93 46.12
								 39.37 46.66 C38.81 47.2 38.7 48.06 39.37 48.59 L52.08 60.53 C52.64 61.07 52.64 61.93 52.08 62.46
								 L39.15 74.83 C38.58 75.37 38.58 76.23 39.15 76.76 C39.71 77.3 40.61 77.19 41.06 76.76 L53.09 65.37
								 L53.21 65.26 L56.13 62.46 ZM0.56 62.46 C0 61.93 0.11 61.07 0.56 60.53 L3.26 57.95 L15.41 46.66 C15.97
								 46.12 16.76 46.12 17.32 46.66 C17.89 47.2 18 48.06 17.32 48.59 L4.84 60.53 C4.27 61.07 4.27 61.93
								 4.84 62.46 L17.55 74.83 C18.11 75.37 18.11 76.23 17.55 76.76 C16.99 77.3 16.09 77.19 15.64 76.76
								 L3.37 65.48 L3.26 65.37 L0.56 62.46 Z" class="st1"/>
				</g>
				<g id="shape17193-5" transform="translate(13.0484,-12.2574)">
					<title>Sheet.17193</title>
					<path d="M7.65 73.75 C7.65 75.8 5.85 77.3 3.94 77.3 C2.02 77.3 0 75.58 0 73.75 C0 71.93 1.57 70.21 3.94 70.21
								 C6.19 70.21 7.65 71.93 7.65 73.75 ZM19.01 73.75 C19.01 75.8 17.21 77.3 15.3 77.3 C13.39 77.3 11.36
								 75.58 11.36 73.75 C11.36 71.93 13.16 70.21 15.3 70.21 C17.44 70.21 19.01 71.93 19.01 73.75 Z"
							class="st2"/>
				</g>
				<g id="shape17194-7" transform="translate(36.108,-12.2574)">
					<title>Sheet.17194</title>
					<ellipse cx="3.71204" cy="73.7543" rx="3.71204" ry="3.54819" class="st2"/>
				</g>
			</g>
		</g>
	</g>
</svg>
